assets/Frame 224219.svg

<svg width="37" height="37" viewBox="0 0 37 37" fill="none" xmlns="http://www.w3.org/2000/svg">
<rect y="2.82794" width="34.1271" height="34.1271" rx="17.0635" transform="rotate(-3.56852 0 2.82794)" fill="white"/>
<path d="M13.0026 28.8947C12.5369 28.9238 12.2889 28.6938 12.2584 28.2048C12.2511 28.0884 12.2591 27.9671 12.2824 27.841L12.8809 25.0689L11.1346 25.1778C10.9251 25.1909 10.7502 25.1356 10.61 25.0118C10.4699 24.8881 10.3932 24.7215 10.3802 24.5119L10.2938 23.1266C10.2962 22.916 10.3554 22.7409 10.4714 22.6012C10.5951 22.4611 10.7578 22.3847 10.9596 22.3721L13.4859 22.2146L14.2497 18.7192L11.8049 18.8717C11.5953 18.8847 11.4166 18.8297 11.2686 18.7064C11.128 18.575 11.0511 18.4044 11.0381 18.1949L10.9524 16.8211C10.9393 16.6116 10.9946 16.4367 11.1184 16.2966C11.2494 16.1481 11.4196 16.0674 11.6292 16.0543L14.8656 15.8525L15.4881 13.0906C15.6522 12.3479 16.2617 11.9398 17.3168 11.8662L18.6556 11.7827C19.098 11.7551 19.3461 11.9851 19.3999 12.4726C19.4071 12.589 19.3955 12.7144 19.3649 12.8488L18.754 15.61L22.2117 15.3944L22.8225 12.6332C22.9866 11.8905 23.6 11.4822 24.6628 11.4081L26.0017 11.3246C26.444 11.297 26.6921 11.527 26.7459 12.0145C26.7532 12.1309 26.7415 12.2563 26.7109 12.3907L26.1001 15.1519L28.1491 15.0241C28.3586 15.011 28.5298 15.0705 28.6627 15.2024C28.7951 15.3266 28.8756 15.493 28.9042 15.7016L28.9899 17.0754C28.9874 17.2859 28.9246 17.4651 28.8014 17.613C28.6854 17.7527 28.5266 17.8289 28.3248 17.8414L25.4841 18.0186L24.7204 21.5139L27.1768 21.3608C27.3864 21.3477 27.5612 21.403 27.7014 21.5267C27.8416 21.6504 27.9182 21.8171 27.9313 22.0266L28.0177 23.412C28.0307 23.6216 27.9793 23.7962 27.8633 23.9359C27.7474 24.0756 27.5846 24.1519 27.3751 24.165L24.1154 24.3683L23.5169 27.1404C23.3528 27.883 22.7391 28.2875 21.6758 28.3538L20.337 28.4373C19.8791 28.4659 19.6349 28.2357 19.6044 27.7467C19.5972 27.6303 19.6052 27.509 19.6285 27.3829L20.227 24.6108L16.7693 24.8264L16.1708 27.5985C16.0068 28.3412 15.3931 28.7456 14.3298 28.8119L13.0026 28.8947ZM17.2856 22.0477L20.8829 21.8234L21.6612 18.1869L18.0639 18.4112L17.2856 22.0477Z" fill="black"/>
</svg>

<svg width="37" height="37" fill="none" xmlns="http://www.w3.org/2000/svg"><rect y="2.828" width="34.127" height="34.127" rx="17.064" transform="rotate(-3.569 0 2.828)" fill="#fff"/><path d="M13.003 28.895c-.466.029-.714-.201-.745-.69-.007-.117.001-.238.024-.364l.599-2.772-1.746.109a.694.694 0 0 1-.525-.166.694.694 0 0 1-.23-.5l-.086-1.385a.81.81 0 0 1 .177-.526.68.68 0 0 1 .489-.229l2.526-.157.764-3.496-2.445.153a.735.735 0 0 1-.536-.166.734.734 0 0 1-.23-.511l-.087-1.374a.694.694 0 0 1 .166-.524.712.712 0 0 1 .511-.243l3.237-.201.622-2.762c.164-.743.774-1.151 1.829-1.225l1.339-.083c.442-.028.69.202.744.69.007.116-.005.241-.035.376l-.611 2.761 3.458-.216.61-2.76c.165-.744.778-1.152 1.84-1.226l1.34-.083c.442-.028.69.202.744.69.007.116-.005.241-.035.376l-.61 2.76 2.048-.127c.21-.013.38.046.514.178a.81.81 0 0 1 .241.5l.086 1.373a.828.828 0 0 1-.189.538.641.641 0 0 1-.476.228l-2.84.178-.765 3.495 2.457-.153a.694.694 0 0 1 .524.166c.14.123.217.29.23.5l.087 1.385a.719.719 0 0 1-.155.524.656.656 0 0 1-.488.229l-3.26.203-.598 2.772c-.164.743-.778 1.148-1.841 1.214l-1.339.083c-.458.029-.702-.201-.733-.69-.007-.117.001-.238.024-.364l.599-2.772-3.458.215-.598 2.773c-.164.742-.778 1.147-1.841 1.213l-1.327.083Zm4.283-6.847 3.597-.225.778-3.636-3.597.224-.778 3.637Z" fill="#000"/></svg>
